symbols/web/schema/materialsymbolsrounded/schema_wght700_24px.svg

<svg xmlns="http://www.w3.org/2000/svg" height="24" width="24"><path d="M5.425 24.525q-1 0-1.688-.688-.687-.687-.687-1.687v-2.775q0-.9.675-1.637Q4.4 17 5.3 17h.25v-1.225H5.3q-.9 0-1.575-.7-.675-.7-.675-1.7v-2.75q0-1 .675-1.7t1.575-.7h.25V7H5.3q-.9 0-1.575-.738-.675-.737-.675-1.637V1.85q0-1 .687-1.688.688-.687 1.688-.687H9q1 0 1.688.687.687.688.687 1.688v2.775q0 .9-.675 1.637Q10.025 7 9.125 7h-.25v1.225h.25q.9 0 1.575.65.675.65.675 1.425v.125h2.25V10.3q0-.775.687-1.425.688-.65 1.688-.65h3.575q1 0 1.688.7.687.7.687 1.7v2.75q0 1-.687 1.7-.688.7-1.688.7H16q-1 0-1.688-.65-.687-.65-.687-1.425v-.125h-2.25v.125q0 .775-.675 1.425t-1.575.65h-.25V17h.25q.9 0 1.575.738.675.737.675 1.637v2.775q0 1-.687 1.687-.688.688-1.688.688Zm.775-3.15h2.025V20.15H6.2v1.225Zm0-8.75h2.025v-1.25H6.2v1.25Zm10.575 0H18.8v-1.25h-2.025v1.25ZM6.2 3.85h2.025V2.625H6.2V3.85Zm1.025-.625ZM17.8 12ZM7.225 12Zm0 8.775Z"/></svg>

<svg xmlns="http://www.w3.org/2000/svg" height="24" width="24"><path d="M5.425 24.525Q4.425 24.525 3.737 23.837Q3.05 23.15 3.05 22.15V19.375Q3.05 18.475 3.725 17.738Q4.4 17 5.3 17H5.55V15.775H5.3Q4.4 15.775 3.725 15.075Q3.05 14.375 3.05 13.375V10.625Q3.05 9.625 3.725 8.925Q4.4 8.225 5.3 8.225H5.55V7H5.3Q4.4 7 3.725 6.262Q3.05 5.525 3.05 4.625V1.85Q3.05 0.85 3.737 0.162Q4.425 -0.525 5.425 -0.525H9Q10 -0.525 10.688 0.162Q11.375 0.85 11.375 1.85V4.625Q11.375 5.525 10.7 6.262Q10.025 7 9.125 7H8.875V8.225H9.125Q10.025 8.225 10.7 8.875Q11.375 9.525 11.375 10.3V10.425H13.625V10.3Q13.625 9.525 14.312 8.875Q15 8.225 16 8.225H19.575Q20.575 8.225 21.263 8.925Q21.95 9.625 21.95 10.625V13.375Q21.95 14.375 21.263 15.075Q20.575 15.775 19.575 15.775H16Q15 15.775 14.312 15.125Q13.625 14.475 13.625 13.7V13.575H11.375V13.7Q11.375 14.475 10.7 15.125Q10.025 15.775 9.125 15.775H8.875V17H9.125Q10.025 17 10.7 17.738Q11.375 18.475 11.375 19.375V22.15Q11.375 23.15 10.688 23.837Q10 24.525 9 24.525ZM6.2 21.375H8.225Q8.225 21.375 8.225 21.375Q8.225 21.375 8.225 21.375V20.15Q8.225 20.15 8.225 20.15Q8.225 20.15 8.225 20.15H6.2Q6.2 20.15 6.2 20.15Q6.2 20.15 6.2 20.15V21.375Q6.2 21.375 6.2 21.375Q6.2 21.375 6.2 21.375ZM6.2 12.625H8.225Q8.225 12.625 8.225 12.625Q8.225 12.625 8.225 12.625V11.375Q8.225 11.375 8.225 11.375Q8.225 11.375 8.225 11.375H6.2Q6.2 11.375 6.2 11.375Q6.2 11.375 6.2 11.375V12.625Q6.2 12.625 6.2 12.625Q6.2 12.625 6.2 12.625ZM16.775 12.625H18.8Q18.8 12.625 18.8 12.625Q18.8 12.625 18.8 12.625V11.375Q18.8 11.375 18.8 11.375Q18.8 11.375 18.8 11.375H16.775Q16.775 11.375 16.775 11.375Q16.775 11.375 16.775 11.375V12.625Q16.775 12.625 16.775 12.625Q16.775 12.625 16.775 12.625ZM6.2 3.85H8.225Q8.225 3.85 8.225 3.85Q8.225 3.85 8.225 3.85V2.625Q8.225 2.625 8.225 2.625Q8.225 2.625 8.225 2.625H6.2Q6.2 2.625 6.2 2.625Q6.2 2.625 6.2 2.625V3.85Q6.2 3.85 6.2 3.85Q6.2 3.85 6.2 3.85ZM7.225 3.225Q7.225 3.225 7.225 3.225Q7.225 3.225 7.225 3.225Q7.225 3.225 7.225 3.225Q7.225 3.225 7.225 3.225Q7.225 3.225 7.225 3.225Q7.225 3.225 7.225 3.225Q7.225 3.225 7.225 3.225Q7.225 3.225 7.225 3.225ZM17.8 12Q17.8 12 17.8 12Q17.8 12 17.8 12Q17.8 12 17.8 12Q17.8 12 17.8 12Q17.8 12 17.8 12Q17.8 12 17.8 12Q17.8 12 17.8 12Q17.8 12 17.8 12ZM7.225 12Q7.225 12 7.225 12Q7.225 12 7.225 12Q7.225 12 7.225 12Q7.225 12 7.225 12Q7.225 12 7.225 12Q7.225 12 7.225 12Q7.225 12 7.225 12Q7.225 12 7.225 12ZM7.225 20.775Q7.225 20.775 7.225 20.775Q7.225 20.775 7.225 20.775Q7.225 20.775 7.225 20.775Q7.225 20.775 7.225 20.775Q7.225 20.775 7.225 20.775Q7.225 20.775 7.225 20.775Q7.225 20.775 7.225 20.775Q7.225 20.775 7.225 20.775Z"/></svg>
